h3bpm/static/images/logo.svg

<?xml version="1.0" encoding="UTF-8"?>
<svg width="216px" height="265px" viewBox="0 0 216 265" version="1.1" xmlns="http://www.w3.org/2000/svg" xmlns:xlink="http://www.w3.org/1999/xlink">
    <!-- Generator: Sketch 44 (41411) - http://www.bohemiancoding.com/sketch -->
    <title>logo</title>
    <desc>Created with Sketch.</desc>
    <defs></defs>
    <g id="Page-1" stroke="none" stroke-width="1" fill="none" fill-rule="evenodd">
        <g id="9登录页-" transform="translate(-267.000000, -240.000000)">
            <g id="logo" transform="translate(267.000000, 240.000000)">
                <path d="M157.781712,232.47145 C157.781712,229.893477 157.002701,228.062906 155.441399,226.981352 C153.885017,225.896569 151.546344,225.352564 148.42866,225.352564 C148.097375,225.352564 147.672609,225.363864 147.151081,225.383235 C146.631194,225.402606 146.101467,225.425205 145.561899,225.442962 C145.019051,225.463948 144.512284,225.486547 144.033397,225.507533 C143.554511,225.526904 143.169105,225.557575 142.878821,225.596317 L142.878821,240.206984 C143.126465,240.206984 143.51351,240.21667 144.033397,240.236041 C144.553285,240.257026 145.094492,240.276397 145.65374,240.297383 C146.214628,240.316754 146.754196,240.339353 147.272443,240.358725 C147.793971,240.378096 148.179376,240.387781 148.42866,240.387781 C151.795627,240.387781 154.194981,239.774362 155.630001,238.549139 C157.065022,237.322302 157.781712,235.478817 157.781712,233.023527 L157.781712,232.47145 Z M166.388554,233.023527 C166.388554,235.724184 165.899827,237.997062 164.922373,239.835704 C163.944919,241.679189 162.63618,243.16108 160.992877,244.286219 C159.351214,245.412973 157.450427,246.210417 155.287237,246.680167 C153.124046,247.149916 150.841134,247.385598 148.42866,247.385598 C147.597168,247.385598 146.641034,247.354927 145.561899,247.293585 C144.479484,247.232244 143.585671,247.180587 142.878821,247.141845 L142.878821,263.160147 C142.878821,263.486227 142.767299,263.77518 142.534416,264.020547 C142.306453,264.264301 142.027649,264.386984 141.693084,264.386984 L135.459356,264.386984 C135.126431,264.386984 134.837787,264.264301 134.583584,264.020547 C134.33594,263.77518 134.211298,263.486227 134.211298,263.160147 L134.211298,220.934334 C134.211298,220.317687 134.388421,219.880222 134.741026,219.615484 C135.096911,219.347517 135.582358,219.174791 136.207207,219.094078 C137.82919,218.84871 139.697176,218.651771 141.821006,218.509716 C143.939916,218.367661 146.142467,218.295019 148.42866,218.295019 C150.841134,218.295019 153.124046,218.517787 155.287237,218.96978 C157.450427,219.420158 159.351214,220.196617 160.992877,221.300771 C162.63618,222.406539 163.944919,223.869059 164.922373,225.689944 C165.899827,227.514058 166.388554,229.770793 166.388554,232.47145 L166.388554,233.023527 Z M215.102163,263.466856 C215.102163,263.792937 214.998841,264.031847 214.792198,264.173902 C214.582275,264.314343 214.332992,264.386984 214.041068,264.386984 L207.745019,264.386984 C207.453094,264.386984 207.215291,264.264301 207.026688,264.020547 C206.838086,263.77518 206.747884,263.486227 206.747884,263.160147 L206.747884,234.621645 C206.747884,234.210008 206.685564,234.004997 206.557642,234.004997 C206.518281,234.004997 206.41332,234.127681 206.247677,234.374663 L200.261593,246.095804 C200.05495,246.425114 199.772866,246.680167 199.421901,246.865806 C199.067656,247.048218 198.68225,247.141845 198.267324,247.141845 L191.967995,247.141845 C191.551429,247.141845 191.167664,247.048218 190.815059,246.865806 C190.462454,246.680167 190.18037,246.425114 189.972087,246.095804 L183.925322,234.374663 C183.758039,234.127681 183.654718,234.004997 183.612077,234.004997 C183.489075,234.004997 183.425115,234.210008 183.425115,234.621645 L183.425115,263.160147 C183.425115,263.486227 183.331633,263.77518 183.146311,264.020547 C182.959348,264.264301 182.719905,264.386984 182.42634,264.386984 L176.130291,264.386984 C175.840007,264.386984 175.587444,264.314343 175.380801,264.173902 C175.175798,264.031847 175.072476,263.792937 175.072476,263.466856 L175.072476,221.241044 C175.072476,220.545298 175.31028,219.960935 175.787526,219.491186 C176.266413,219.019822 176.856822,218.78414 177.565312,218.78414 L182.678904,218.78414 C183.175831,218.78414 183.633397,218.918124 184.049963,219.186091 C184.466529,219.450829 184.778134,219.805966 184.984777,220.257959 L194.40015,239.036646 C194.567432,239.323984 194.692074,239.541909 194.774075,239.685578 C194.857716,239.826019 194.962678,239.89866 195.085679,239.89866 C195.210321,239.89866 195.315283,239.826019 195.397284,239.685578 C195.480925,239.541909 195.603927,239.323984 195.772849,239.036646 L205.184942,220.257959 C205.394865,219.805966 205.70811,219.450829 206.124676,219.186091 C206.539601,218.918124 206.995528,218.78414 207.494095,218.78414 L212.609327,218.78414 C213.312897,218.78414 213.908226,219.019822 214.385472,219.491186 C214.862719,219.960935 215.102163,220.545298 215.102163,221.241044 L215.102163,263.466856 Z M117.051736,250.701288 C117.051736,249.840888 116.925454,249.024072 116.67617,248.245999 C116.426887,247.467925 116.000481,246.781865 115.396952,246.189432 C114.795064,245.598612 114.004573,245.114334 113.027119,244.746283 C112.051305,244.378232 110.834408,244.19582 109.378067,244.19582 L101.461675,244.19582 L101.461675,257.699105 C102.211166,257.699105 103.082018,257.718476 104.080792,257.758833 C105.077926,257.800804 105.909418,257.81856 106.571987,257.81856 C108.569536,257.81856 110.232519,257.699105 111.562578,257.452123 C112.892637,257.205142 113.963572,256.817719 114.770463,256.286628 C115.585555,255.752308 116.166123,255.088847 116.520368,254.291402 C116.874613,253.492344 117.051736,252.56253 117.051736,251.497118 L117.051736,250.701288 Z M116.800812,231.244613 C116.800812,229.118632 116.000481,227.602842 114.398178,226.702085 C112.797516,225.801328 110.002916,225.352564 106.01274,225.352564 C105.266529,225.352564 104.484238,225.363864 103.674066,225.383235 C102.863895,225.402606 102.124245,225.434891 101.461675,225.475248 L101.461675,237.93572 L109.378067,237.93572 C110.834408,237.93572 112.041465,237.780751 112.995958,237.475656 C113.952092,237.167333 114.709783,236.747625 115.272311,236.216533 C115.834838,235.683828 116.228444,235.059109 116.456407,234.343992 C116.686011,233.628875 116.800812,232.879858 116.800812,232.101785 L116.800812,231.244613 Z M125.529016,251.623031 C125.529016,254.076706 125.084569,256.142959 124.190757,257.81856 C123.296944,259.497391 122.025926,260.858212 120.385903,261.902638 C118.74424,262.94545 116.756532,263.702538 114.430979,264.173902 C112.102146,264.643652 109.486309,264.877719 106.571987,264.877719 C104.038152,264.877719 101.845441,264.817992 99.9954944,264.693694 C98.1455483,264.57101 96.7416884,264.40797 95.7855549,264.202959 C94.7457802,263.997948 93.9913695,263.681553 93.5124827,263.250545 C93.0335959,262.822766 92.7941526,262.033393 92.7941526,260.888883 L92.7941526,222.222514 C92.7941526,221.119974 93.0122756,220.328987 93.4452418,219.860851 C93.886408,219.389487 94.6014581,219.071478 95.6002323,218.910052 C96.431724,218.78414 97.7617828,218.651771 99.5904087,218.509716 C101.420675,218.367661 103.559265,218.295019 106.01274,218.295019 C108.84014,218.295019 111.428096,218.509716 113.776609,218.940723 C116.126763,219.368502 118.150551,220.073934 119.856175,221.055404 C121.560159,222.036874 122.878738,223.316982 123.815191,224.8925 C124.750005,226.468017 125.219051,228.421272 125.219051,230.753878 L125.219051,231.980715 C125.219051,234.027597 124.740164,235.877539 123.784031,237.53377 C122.827897,239.191615 121.394517,240.431366 119.48225,241.248182 C121.394517,242.064997 122.878738,243.243407 123.939833,244.778568 C124.999288,246.310501 125.529016,248.245999 125.529016,250.578604 L125.529016,251.623031 Z M72.534946,251.623031 C72.534946,253.912051 72.1282202,255.887906 71.3180488,257.54575 C70.5078773,259.201981 69.4074218,260.570874 68.0150421,261.655656 C66.6210223,262.740439 64.971159,263.549183 63.0556119,264.080275 C61.1433449,264.611366 59.0867558,264.877719 56.8842046,264.877719 C54.5570117,264.877719 52.4249815,264.732436 50.4897542,264.448326 C48.5578068,264.162602 46.6996606,263.792937 44.9103953,263.344172 C44.5807506,263.261845 44.2986666,263.129476 44.0674233,262.94545 C43.8427402,262.761424 43.7279385,262.503143 43.7279385,262.177062 L43.7279385,258.373866 C43.7279385,258.046171 43.83126,257.778204 44.0395429,257.573193 C44.2445458,257.369796 44.5167897,257.266484 44.8497144,257.266484 L44.9743562,257.266484 C47.4671914,257.51508 49.702543,257.718476 51.677131,257.879902 C53.6533589,258.046171 55.3885035,258.126884 56.8842046,258.126884 C59.4180405,258.126884 61.2171459,257.587721 62.2782409,256.501324 C63.3376959,255.416542 63.8657834,253.789368 63.8657834,251.623031 L63.8657834,250.333237 C63.8657834,249.514807 63.7936224,248.73512 63.6509403,248.000631 C63.5033382,247.262914 63.2130541,246.607525 62.776808,246.034463 C62.3405618,245.464629 61.7468734,245.00295 60.9973828,244.65427 C60.2495322,244.307204 59.2933987,244.132864 58.1306223,244.132864 L47.0965462,244.132864 C46.3027749,244.132864 45.9075294,243.743828 45.9075294,242.968983 L45.9075294,239.099602 C45.9075294,238.321528 46.3027749,237.93572 47.0965462,237.93572 L58.1306223,237.93572 C59.2933987,237.93572 60.2495322,237.77268 60.9973828,237.441757 C61.7468734,237.115676 62.3405618,236.674983 62.776808,236.124521 C63.2130541,235.572444 63.5033382,234.934811 63.6509403,234.219694 C63.7936224,233.504577 63.8657834,232.737803 63.8657834,231.920988 L63.8657834,230.939518 C63.8657834,230.15983 63.7723021,229.410813 63.5869794,228.69731 C63.4000168,227.982193 63.0457718,227.359089 62.5258844,226.827997 C62.0076371,226.293677 61.2893069,225.86267 60.375814,225.538204 C59.4606811,225.208895 58.2962646,225.04424 56.8842046,225.04424 C55.7624288,225.04424 54.7734948,225.06684 53.9223227,225.107196 C53.0695107,225.145938 52.2068585,225.199209 51.3327261,225.258937 C50.4618738,225.321893 49.5254205,225.413906 48.5299265,225.538204 C47.5311523,225.659273 46.3454156,225.781957 44.9743562,225.906255 L44.8497144,225.906255 C44.5167897,225.906255 44.2445458,225.801328 44.0395429,225.596317 C43.83126,225.39292 43.7279385,225.128182 43.7279385,224.802101 L43.7279385,220.995676 C43.7279385,220.667981 43.8427402,220.411314 44.0674233,220.227288 C44.2986666,220.044877 44.5807506,219.912508 44.9103953,219.828566 C46.6996606,219.378188 48.5578068,219.010136 50.4897542,218.722798 C52.4249815,218.440303 54.5570117,218.295019 56.8842046,218.295019 C59.1293964,218.295019 61.2073058,218.517787 63.1195728,218.96978 C65.0318399,219.420158 66.6849833,220.146575 68.0757229,221.145802 C69.4681026,222.149872 70.5603581,223.450966 71.3508492,225.04424 C72.1413404,226.640743 72.534946,228.603683 72.534946,230.939518 L72.534946,231.920988 C72.534946,234.088939 72.0675394,235.91951 71.1327262,237.414314 C70.1979129,238.905891 68.8760542,240.103671 67.1737102,241.002814 C68.9170548,241.943928 70.2487537,243.243407 71.1622466,244.898024 C72.0773795,246.559097 72.534946,248.370297 72.534946,250.333237 L72.534946,251.623031 Z M35.0423757,263.160147 C35.0423757,263.486227 34.9193739,263.77518 34.6700904,264.020547 C34.4191669,264.264301 34.1288827,264.386984 33.795958,264.386984 L27.6229107,264.386984 C27.291626,264.386984 27.0013419,264.264301 26.7504184,264.020547 C26.5027749,263.77518 26.3764931,263.486227 26.3764931,263.160147 L26.3764931,244.378232 L8.6675226,244.378232 L8.6675226,263.160147 C8.6675226,263.486227 8.54288084,263.77518 8.29359731,264.020547 C8.04267376,264.264301 7.75402968,264.386984 7.41946495,264.386984 L1.24641763,264.386984 C0.915132944,264.386984 0.624848838,264.264301 0.373925289,264.020547 C0.124641763,263.77518 0,263.486227 0,263.160147 L0,219.949636 C0,219.625169 0.124641763,219.347517 0.373925289,219.119906 C0.624848838,218.898752 0.915132944,218.78414 1.24641763,218.78414 L7.41946495,218.78414 C7.75402968,218.78414 8.04267376,218.898752 8.29359731,219.119906 C8.54288084,219.347517 8.6675226,219.625169 8.6675226,219.949636 L8.6675226,236.891294 L26.3764931,236.891294 L26.3764931,219.949636 C26.3764931,219.625169 26.5027749,219.347517 26.7504184,219.119906 C27.0013419,218.898752 27.291626,218.78414 27.6229107,218.78414 L33.795958,218.78414 C34.1288827,218.78414 34.4191669,218.898752 34.6700904,219.119906 C34.9193739,219.347517 35.0423757,219.625169 35.0423757,219.949636 L35.0423757,263.160147 Z" id="Fill-1" fill="#77BCFA"></path>
                <g id="Group-4" transform="translate(22.736842, 0.000000)">
                    <path d="M4.25225079,104.544148 C1.91000825,104.544148 0,102.658395 0,100.352946 L0,66.8405847 C0,64.532262 1.91000825,62.6522582 4.25225079,62.6522582 L38.3053031,62.6522582 C40.6475456,62.6522582 42.5575539,64.532262 42.5575539,66.8405847 L42.5604744,100.352946 C42.5604744,102.658395 40.6475456,104.544148 38.3023826,104.544148 L4.25225079,104.544148 Z M131.938639,104.544148 C129.596396,104.544148 127.683468,102.658395 127.683468,100.352946 L127.683468,66.8405847 C127.683468,64.532262 129.596396,62.6522582 131.938639,62.6522582 L165.98585,62.6522582 C168.331013,62.6522582 170.241021,64.532262 170.241021,66.8405847 L170.241021,100.352946 C170.241021,102.658395 168.331013,104.544148 165.98585,104.544148 L131.938639,104.544148 Z M68.0952988,104.544148 C65.7501358,104.544148 63.843048,102.658395 63.843048,100.352946 L63.843048,66.8405847 C63.843048,64.532262 65.7501358,62.6522582 68.0952988,62.6522582 L102.148351,62.6522582 C104.487673,62.6522582 106.394761,64.532262 106.394761,66.8405847 L106.394761,100.352946 C106.400602,102.658395 104.487673,104.544148 102.148351,104.544148 L68.0952988,104.544148 Z" id="Combined-Shape" fill="#D0E9FF"></path>
                    <path d="M131.938639,41.8890148 C129.596396,41.8890148 127.683468,40.009011 127.683468,37.7006882 L127.683468,4.18545193 C127.683468,1.88000382 129.596396,0 131.938639,0 L165.98585,0 C168.331013,0 170.241021,1.88000382 170.241021,4.18545193 L170.241021,37.7006882 C170.241021,40.009011 168.331013,41.8890148 165.98585,41.8890148 L131.938639,41.8890148 Z M4.25225079,41.8890148 C1.91000825,41.8890148 0,40.009011 0,37.7006882 L0,4.18545193 C0,1.88000382 1.91000825,0 4.25225079,0 L38.3053031,0 C40.6475456,0 42.5575539,1.88000382 42.5575539,4.18545193 L42.5604744,37.7006882 C42.5604744,40.009011 40.6475456,41.8890148 38.3023826,41.8890148 L4.25225079,41.8890148 Z M4.25225079,167.563821 C1.91000825,167.563821 0,165.683817 0,163.372619 L0,129.863132 C0,127.551935 1.91000825,125.674806 4.25225079,125.674806 L38.3053031,125.674806 C40.6475456,125.674806 42.5575539,127.551935 42.5575539,129.863132 L42.5604744,163.372619 C42.5604744,165.683817 40.6475456,167.563821 38.3023826,167.563821 L4.25225079,167.563821 Z M165.98585,167.563821 L131.938639,167.563821 C129.596396,167.563821 127.683468,165.683817 127.683468,163.372619 L127.683468,129.863132 C127.683468,127.551935 129.596396,125.674806 131.938639,125.674806 L165.98585,125.674806 C168.331013,125.674806 170.241021,127.551935 170.241021,129.863132 L170.241021,163.372619 C170.241021,165.683817 168.331013,167.563821 165.98585,167.563821 Z" id="Combined-Shape" fill="#77BCFA"></path>
                </g>
            </g>
        </g>
    </g>
</svg>

<svg width="216" height="265" xmlns="http://www.w3.org/2000/svg"><g fill="none" fill-rule="evenodd"><path d="M157.782 232.471c0-2.578-.78-4.408-2.34-5.49-1.557-1.084-3.896-1.628-7.013-1.628-.332 0-.756.01-1.278.03-.52.02-1.05.042-1.59.06-.542.02-1.049.044-1.528.065-.478.019-.864.05-1.154.088v14.611c.247 0 .635.01 1.154.029.52.021 1.061.04 1.62.061.562.02 1.101.042 1.62.062.521.02.906.029 1.156.029 3.367 0 5.766-.614 7.201-1.839 1.435-1.227 2.152-3.07 2.152-5.525v-.553zm8.607.553c0 2.7-.49 4.973-1.467 6.812-.977 1.843-2.286 3.325-3.93 4.45-1.64 1.127-3.542 1.924-5.705 2.394-2.163.47-4.446.706-6.858.706-.832 0-1.788-.031-2.867-.092-1.083-.062-1.976-.113-2.683-.152v16.018c0 .326-.112.615-.345.86a1.105 1.105 0 0 1-.84.367h-6.235c-.333 0-.621-.123-.875-.366a1.178 1.178 0 0 1-.373-.86v-42.227c0-.616.177-1.054.53-1.319.356-.267.841-.44 1.466-.52 1.622-.246 3.49-.443 5.614-.585a98.826 98.826 0 0 1 6.608-.215c2.412 0 4.695.223 6.858.675 2.163.45 4.064 1.227 5.706 2.33 1.643 1.107 2.952 2.57 3.93 4.39.977 1.824 1.466 4.08 1.466 6.781v.553zm48.713 30.443c0 .326-.103.565-.31.707-.21.14-.459.213-.75.213h-6.297a.87.87 0 0 1-.718-.366 1.373 1.373 0 0 1-.28-.86v-28.54c0-.411-.061-.616-.19-.616-.039 0-.144.123-.31.37l-5.985 11.72c-.207.33-.49.585-.84.77-.354.183-.74.277-1.155.277h-6.299c-.417 0-.8-.094-1.153-.276a2.174 2.174 0 0 1-.843-.77l-6.047-11.721c-.167-.247-.27-.37-.313-.37-.123 0-.187.205-.187.617v28.538c0 .326-.093.615-.279.86a.869.869 0 0 1-.72.367h-6.296c-.29 0-.543-.073-.75-.213-.204-.142-.308-.381-.308-.707V221.24c0-.696.238-1.28.716-1.75.478-.471 1.069-.707 1.777-.707h5.114c.497 0 .954.134 1.371.402.417.265.728.62.935 1.072l9.415 18.779c.167.287.292.505.374.649.084.14.189.213.312.213.124 0 .23-.073.311-.213.084-.144.207-.362.376-.65l9.412-18.778c.21-.452.523-.807.94-1.072.415-.268.87-.402 1.37-.402h5.114c.704 0 1.3.236 1.776.707.478.47.717 1.054.717 1.75v42.226zm-98.05-12.766c0-.86-.127-1.677-.376-2.455a4.977 4.977 0 0 0-1.279-2.057c-.602-.59-1.392-1.075-2.37-1.443-.976-.368-2.193-.55-3.649-.55h-7.916v13.503c.75 0 1.62.02 2.619.06.997.042 1.828.06 2.491.06 1.998 0 3.66-.12 4.99-.367s2.402-.634 3.208-1.165c.816-.535 1.396-1.198 1.75-1.996.355-.799.532-1.728.532-2.794v-.796zm-.251-19.456c0-2.126-.8-3.642-2.403-4.543-1.6-.9-4.395-1.35-8.385-1.35-.746 0-1.529.012-2.339.031-.81.02-1.55.052-2.212.092v12.46h7.916c1.456 0 2.663-.154 3.618-.46.956-.308 1.714-.727 2.276-1.258a4.374 4.374 0 0 0 1.184-1.873c.23-.715.345-1.464.345-2.242v-.857zm8.728 20.378c0 2.454-.444 4.52-1.338 6.196-.894 1.678-2.165 3.04-3.805 4.084-1.642 1.042-3.63 1.8-5.955 2.27-2.329.47-4.945.705-7.859.705-2.534 0-4.727-.06-6.577-.184-1.85-.123-3.253-.286-4.21-.491-1.04-.205-1.794-.521-2.273-.952-.478-.428-.718-1.218-.718-2.362v-38.666c0-1.103.218-1.894.651-2.362.441-.472 1.156-.79 2.155-.95.832-.127 2.162-.26 3.99-.401 1.83-.142 3.97-.215 6.423-.215 2.827 0 5.415.215 7.764.646 2.35.428 4.374 1.133 6.08 2.114 1.703.982 3.022 2.262 3.958 3.838.935 1.575 1.404 3.528 1.404 5.86v1.228c0 2.047-.479 3.897-1.435 5.553-.956 1.658-2.39 2.897-4.302 3.714 1.913.817 3.397 1.995 4.458 3.53 1.06 1.533 1.589 3.468 1.589 5.8v1.045zm-52.994 0c0 2.29-.407 4.265-1.217 5.923-.81 1.656-1.91 3.025-3.303 4.11-1.394 1.084-3.044 1.893-4.96 2.424-1.912.531-3.968.798-6.17.798-2.328 0-4.46-.146-6.395-.43a57.49 57.49 0 0 1-5.58-1.104 2.185 2.185 0 0 1-.843-.399c-.224-.184-.34-.442-.34-.768v-3.803c0-.328.104-.596.313-.8.205-.204.477-.308.81-.308h.124c2.493.25 4.729.452 6.703.614 1.976.166 3.712.247 5.207.247 2.534 0 4.333-.54 5.394-1.626 1.06-1.084 1.588-2.712 1.588-4.878v-1.29c0-.818-.072-1.598-.215-2.332a4.729 4.729 0 0 0-.874-1.967c-.436-.57-1.03-1.031-1.78-1.38-.747-.347-1.704-.521-2.866-.521H47.097c-.794 0-1.19-.39-1.19-1.164v-3.87c0-.777.396-1.163 1.19-1.163H58.13c1.162 0 2.119-.163 2.866-.494.75-.326 1.344-.767 1.78-1.317.436-.553.726-1.19.874-1.905.143-.715.215-1.482.215-2.299v-.981c0-.78-.094-1.53-.279-2.243a4.12 4.12 0 0 0-1.061-1.869c-.518-.534-1.237-.965-2.15-1.29-.915-.33-2.08-.494-3.492-.494-1.122 0-2.11.023-2.962.063-.852.039-1.715.092-2.59.152-.87.063-1.807.155-2.802.28-.999.12-2.185.243-3.556.367h-.124c-.333 0-.605-.105-.81-.31-.209-.203-.312-.468-.312-.794v-3.806c0-.328.115-.585.34-.769.23-.182.513-.314.842-.398 1.79-.45 3.648-.819 5.58-1.106 1.935-.283 4.067-.428 6.394-.428 2.245 0 4.323.223 6.236.675 1.912.45 3.565 1.177 4.956 2.176 1.392 1.004 2.484 2.305 3.275 3.898.79 1.597 1.184 3.56 1.184 5.896v.981c0 2.168-.467 3.999-1.402 5.493-.935 1.492-2.257 2.69-3.96 3.589 1.744.94 3.076 2.24 3.99 3.895.914 1.661 1.372 3.472 1.372 5.435v1.29zM35.042 263.16c0 .326-.123.615-.372.86-.25.244-.541.367-.874.367h-6.173c-.331 0-.622-.123-.873-.366a1.18 1.18 0 0 1-.374-.86v-18.783H8.668v18.782c0 .326-.125.615-.374.86-.251.244-.54.367-.875.367H1.246c-.33 0-.621-.123-.872-.366a1.173 1.173 0 0 1-.374-.86V219.95c0-.325.125-.602.374-.83.25-.221.541-.336.872-.336H7.42c.335 0 .624.115.875.336.249.228.374.505.374.83v16.941h17.708V219.95c0-.325.127-.602.374-.83.251-.221.542-.336.873-.336h6.173c.333 0 .623.115.874.336.25.228.372.505.372.83v43.21z" fill="#77BCFA"/><path d="M26.99 104.544c-2.343 0-4.253-1.886-4.253-4.191V66.84c0-2.309 1.91-4.189 4.252-4.189h34.053c2.342 0 4.252 1.88 4.252 4.189l.003 33.512c0 2.305-1.913 4.191-4.258 4.191H26.99zm127.685 0c-2.342 0-4.255-1.886-4.255-4.191V66.84c0-2.309 1.913-4.189 4.255-4.189h34.048c2.345 0 4.255 1.88 4.255 4.189v33.512c0 2.305-1.91 4.191-4.255 4.191h-34.048zm-63.843 0c-2.345 0-4.252-1.886-4.252-4.191V66.84c0-2.309 1.907-4.189 4.252-4.189h34.053c2.34 0 4.247 1.88 4.247 4.189v33.512c.005 2.305-1.907 4.191-4.247 4.191H90.832z" fill="#D0E9FF"/><path d="M154.675 41.889c-2.342 0-4.255-1.88-4.255-4.188V4.185c0-2.305 1.913-4.185 4.255-4.185h34.048c2.345 0 4.255 1.88 4.255 4.185v33.516c0 2.308-1.91 4.188-4.255 4.188h-34.048zm-127.686 0c-2.342 0-4.252-1.88-4.252-4.188V4.185C22.737 1.88 24.647 0 26.989 0h34.053c2.342 0 4.252 1.88 4.252 4.185l.003 33.516c0 2.308-1.913 4.188-4.258 4.188H26.99zm0 125.675c-2.342 0-4.252-1.88-4.252-4.191v-33.51c0-2.311 1.91-4.188 4.252-4.188h34.053c2.342 0 4.252 1.877 4.252 4.188l.003 33.51c0 2.31-1.913 4.19-4.258 4.19H26.99zm161.734 0h-34.048c-2.342 0-4.255-1.88-4.255-4.191v-33.51c0-2.311 1.913-4.188 4.255-4.188h34.048c2.345 0 4.255 1.877 4.255 4.188v33.51c0 2.31-1.91 4.19-4.255 4.19z" fill="#77BCFA"/></g></svg>
